!!!!SEGMENT: pl-sa--l-1636--120_anonim--credo.krn
!!!cenid: 17xx:827
!!!COM: Anonim
!!!COM-rismid: pe30004985
!!!CDT:
!!!CNT:
!!!OTL: Credo
!!!PDT:
!!!AGN: Sacred; Mass section
!!!SMS-siglum: PL-SA
!!!SMS-shelfmark: L 1636
!!!SMS-shelfwork: 120 W
!!!SMS-variant:
!!!SMS-altvar:
!!!NIFC-rismid: 1001100419
!!!URL-scan: http://repozytorium.nifc.pl/skany/pl-sa-nut--l1636
!!!ONB-nifc: 74v-77r, skan 0061-0063
!!!key:
**kern	**fba	**kern	**text
*part2	*	*part1	*part1
*staff2	*	*staff1	*staff1
*Iempty	*	*Iempty	*
*I"	*	*I"	*I"
*clefF4	*	*clefC1	*
*k[]	*	*k[b-]	*
*F:	*	*F:	*
*M2/1	*	*M2/1	*
*met(C|)	*	*met(C|)	*
=1	=1	=1	=1
*all\right	*	*all\right	*
*2\right	*	*2\right	*
!LO:TX:a:t=P:problem=brak bemola przy kluczu	!	!	!
2F\	.	2f/	Pa-
2FF/	.	4f/	-trem
.	.	4f/	Om-
4F\	.	2a\	-ni-
8E\L	.	.	.
8D\J	.	.	.
!	!	!LO:TX:a:t=P:problem=♯ w funkcji kasownika	!
4G\	.	2bn\	-po-
4GG/	.	.	.
=2-	=2-	=2-	=2
1C	.	1cc	-ten-
1CC	.	1cc	-tem
!!LO:LB:g=original
=3-	=3-	=3-	=3
4G\	.	2dd\	fac-
4F\	.	.	.
4E\	.	2ee\	-to-
8D\L	.	.	.
8C\J	.	.	.
4D/	.	2ff\	-re(m)
8AA/L	.	.	.
8BB/J	.	.	.
4C\	.	2cc\	Cae-
4E\	.	.	.
=4-	=4-	=4-	=4
4F\	.	4a\	-li
4D\	.	4a\	et
!	!	!LO:TX:a:t=P:problem=♯ w funkcji kasownika	!
4G\	.	2bn\	ter-
4GG/	.	.	.
1C	.	1cc	-rae
=5	=5	=5	=5
2G\	.	4b-\	Vi-
.	.	4b-\	-ſi-
2C/	.	4g\	-bi-
.	.	4g\	-li-
*	*	*lig	*
4F\	.	2a\	-um
4D\	.	.	.
4G\	.	2b-\	.
4E\	.	.	.
*	*	*Xlig	*
=6-	=6-	=6-	=6
!LO:TX:a:t=P:problem=mixed beam	!	!	!
8F\L	.	2a\	Om-
8AA/	.	.	.
8BB/	.	.	.
8GG/J	.	.	.
4C/	.	2g/	-ni-
4CC/	.	.	.
1FF	.	1f	-um
=7	=7	=7	=7
2.C/	.	2e/	et
.	.	2f/	in-
4BBn/	.	.	.
2C/	.	2g/	-vi-
2F\	.	2a\	-si-
!!LO:LB:g=original
=8-	=8-	=8-	=8
4C/	.	2g/	-bi-
4CC/	.	.	.
4D/	.	(2f/	.
8AA/L	.	.	.
8BB/J	.	.	.
4C/	.	2e/	.
8E\L	.	.	.
8F\J	.	.	.
4G\	.	2d/)	-li-
4GG/	.	.	.
=9-	=9-	=9-	=9
1C	.	1c	-um
=	=	=	=
2.F\	.	2f/	Et
.	.	2g/	in
4E\	.	.	.
=10-	=10-	=10-	=10
1F 1FF	.	2a\	U-
.	.	2f/	-num
4F\	.	2cc\	D(o-
4D\	.	.	.
4G\	.	2dd\	-mi)-
4A\	.	.	.
=11-	=11-	=11-	=11
1C	.	1cc	-num
=	=	=	=
4F\	.	2f/	Je-
4FF/	.	.	.
4C/	.	2g/	-sum
!LO:SIC:v:s=4CC	!	!	!
4DD/	.	.	.
=12-	=12-	=12-	=12
*	*	*lig	*
8F\L	.	2a\	Chri-
8E\	.	.	.
8D\	.	.	.
8C\J	.	.	.
!LO:SIC:v:s=8BB-	!	!	!
8BB\L	.	2b-\	.
8C\	.	.	.
8D\	.	.	.
!LO:SIC:v:s=8BB-	!	!	!
8BB\J	.	.	.
*	*	*Xlig	*
!LO:TX:a:t=P:problem=mixed beam	!	!	!
*	*	*lig	*
8F\L	.	2a\	.
8AA/	.	.	.
!LO:SIC:v:s=8BB-	!	!	!
8BB/	.	.	.
8GG/J	.	.	.
!LO:N:vis=1	!	!	!
2C/	.	2g\	.
*	*	*Xlig	*
=13-	=13-	=13-	=13
1FF	.	1f	-ſtum
!!LO:LB:g=original
=	=	=	=
2F\	.	2f/	Fi-
2FF/	.	4cc\	-li-
.	.	4cc\	-um
=14-	=14-	=14-	=14
!LO:SIC:v:s=2BB-	!	!	!
2BB/	.	2dd\	De-
2FF/	.	2cc\	-i
4D\	.	4ff\	U-
8E\L	.	4ee\	-ni-
8F\J	.	.	.
4G\	.	4dd\	-ge-
4GG/	.	4dd\	-ni-
=15-	=15-	=15-	=15
1C	.	1cc	-t(um)
=	=	=	=
4F\	.	2f/	Et
!LO:TX:a:t=P:problem=dźwięk nieczytelny	!	!	!
4ryy	.	.	.
4E\	.	2g/	ex
4C/	.	.	.
=16-	=16-	=16-	=16
2F\	.	2a/	Pa-
2FF/	.	2f/	-tre
*	*	*lig	*
4F\	.	2cc\	Na-
4D\	.	.	.
4G\	.	2dd\	.
4GG/	.	.	.
*	*	*Xlig	*
=17-	=17-	=17-	=17
1C	.	1cc	-t(um)
=	=	=	=
2F\	.	2f/	an-
2C/	.	2g/	-te
=18-	=18-	=18-	=18
2F\	.	2a\	O(m-
4G\	.	4b-\	-ni-
4E\	.	4b-\	-a)
!!LO:PB:g=original
4F\	.	2a\	ſae-
!LO:SIC:v:s=4BB-	!	!	!
4BB/	.	.	.
4C/	.	2g/	-cu-
4CC/	.	.	.
=19-	=19-	=19-	=19
1FF	.	1f	-la
=	=	=	=
1F	.	1a	De-
=20-	=20-	=20-	=20
2D/	.	2f/	-um
!LO:SIC:v:s=2BB-	!	!	!
2BB/	.	2g/	de
2F\	.	2a\	De-
2FF/	.	2f/	-o
=21-	=21-	=21-	=21
2GG/	.	2cc\	lu-
2FF/	.	2cc\	-men
!LO:SIC:v:s=4BB-	!	!	!
4BB/	.	(4b-\	de
4C/	.	4a\	.
4D/	.	4g\	.
8AA/L	.	4f\)	.
!LO:SIC:v:s=8BB-	!	!	!
8BB/J	.	.	.
=22-	=22-	=22-	=22
2.C/	.	2.g/	lu-
4CC/	.	4g/	-mi-
1FF	.	1a	-ne
=23	=23	=23	=23
2F\	.	4a\	De-
.	.	4a\	-u(m)
2C/	.	4g\	ve-
.	.	4g\	-ru(m)
2F\	.	2a\	de
!	!	!LO:SIC:v:l:s=De-	!
4G\	.	2b-\	.
4E\	.	.	.
!!LO:LB:g=original
=24-	=24-	=24-	=24
4F\	.	2a\	-o
4AA/	.	.	.
4C/	.	2g/	ve-
4CC/	.	.	.
1FF	.	1f	-ro
=25	=25	=25	=25
2.C/	.	2e/	ge-
.	.	2f/	-ni-
4BB/	.	.	.
2C/	.	2g/	-tum
2F\	.	2a\	non
=26-	=26-	=26-	=26
*	*	*lig	*
4C/	.	2g\	fa-
!LO:N:vis=2	!	!	!
4CC/	.	.	.
4DD/	.	2f/	.
4D\	.	.	.
*	*	*Xlig	*
*	*	*lig	*
4E\	.	2e/	.
4F\	.	.	.
4G\	.	2d/	.
4GG/	.	.	.
*	*	*Xlig	*
=27-	=27-	=27-	=27
1C	.	1c	-ct(um)
=	=	=	=
2F\	.	4f/	Con-
.	.	4f/	-ſub-
2E\	.	4g/	-ſtan-
.	.	4g/	-ti-
=28-	=28-	=28-	=28
2F\	.	2a\	-a-
2FF/	.	2f/	-l(em)
4F\	.	2cc\	Pa-
4D\	.	.	.
4G\	.	2dd\	.
4GG/	.	.	.
=29-	=29-	=29-	=29
1C	.	1cc	-tri
!!LO:LB:g=original
=	=	=	=
2F\	.	2f/	per
2C/	.	2g/	q(uem)
=30-	=30-	=30-	=30
2F\	.	2a\	O(m)-
4G\	.	4b-\	-ni-
4E\	.	4b-\	-a
4F\	.	2a\	fa-
!LO:SIC:v:s=4BB-	!	!	!
4BB/	.	.	.
4C/	.	2g/	-cta
4CC/	.	.	.
=31-	=31-	=31-	=31
1FF	.	1f	ſunt
=	=	=	=
2F\	.	2f/	Qui
2FF/	.	[4f/	p(ro-
.	.	4f/]	.
=32-	=32-	=32-	=32
4F\	.	2a\	-pter)
4D\	.	.	.
!	!	!LO:TX:a:t=P:problem=♯ w funkcji kasownika	!
4G\	.	2bn\	nos
4GG/	.	.	.
1C	.	2.cc\	ho-
.	.	4cc\	-mi-
=33-	=33-	=33-	=33
1CC	.	1cc	-nes
=	=	=	=
4G\	.	2dd\	et
4F\	.	.	.
4E\	.	2ee\	pr(o-
4C/	.	.	.
=34-	=34-	=34-	=34
4D/	.	2ff\	-pter)
8AA/L	.	.	.
8BB/J	.	.	.
4C/	.	2cc\	No-
4E\	.	.	.
!!LO:LB:g=original
4F\	.	4a\	-ſtram
4D\	.	4a\	ſa-
4G\	.	2bn\	-lu-
4GG/	.	.	.
=35-	=35-	=35-	=35
1C	.	1cc	-t(em)
=	=	=	=
4FF/	.	2a\	de-
4GG/	.	.	.
4AA/	.	2a\	-ſcen-
4FF/	.	.	.
=36-	=36-	=36-	=36
!LO:SIC:v:s=4BB-	!	!	!
4BB/	.	(4b-\	-dit
!LO:TX:a:t=P:problem=dwie kolejne nuty niepewne, wytarte	!	!	!
4C/	.	4a\)	.
4D/	.	(4g\	de
!LO:SIC:v:s=4BB-	!	!	!
4BB/	.	4f\)	.
2C/	.	1g	Cae-
2CC/	.	.	.
=37-	=37-	=37-	=37
!LO:TX:b:t=Et in Carnat(us)\nVertatur.	!	!	!
1FF	.	1a	-lis
!!LO:PB:g=original
=	=	=	=
*k[b-]	*	*	*
!LO:TX:a:t=P:problem=przy kluczu (wreszcie) bemol	!	!	!
2F\	.	2a\	Et
2FF/	.	2a\	in-
=38-	=38-	=38-	=38
2D/	.	2f\	-Car-
2C/	.	2g\	-na-
2F\	.	2a\	-tus
2E\	.	2g\	eſt
=39-	=39-	=39-	=39
2FF/	.	2cc\	de
2AA/	.	2cc\	ſpi-
4BB-/	.	(4b-\	-ri-
4C/	.	4a\)	.
4D/	.	(4g/	-tu
4BB-/	.	4f/)	.
=40-	=40-	=40-	=40
2C/	.	1g	ſan-
2CC/	.	.	.
1FF	.	1a	-cto
=41	=41	=41	=41
2C/	.	2.g/	Ex
2C/	.	.	.
.	.	4g/	Ma-
2C/	.	2g/	-ri-
2F\	.	2g/	-a
=42-	=42-	=42-	=42
2F\	.	2a\	Vir-
2D/	.	2f/	-gi-
2C/	.	2g/	-ne
2CC/	.	2g/	et
!!LO:LB:g=original
=43-	=43-	=43-	=43
2D/	.	2f/	Ho-
2E\	.	2e/	-mo
2G\	.	2.d/	fac-
2GG/	.	.	.
.	.	4d/	-tus
=44-	=44-	=44-	=44
1C	.	1c	eſt
=	=	=	=
2FF/	.	2f/	Cru-
2F\	.	2cc\	-ci-
=45-	=45-	=45-	=45
2BB-/	.	2dd\	-fi-
2FF/	.	2cc\	-xus
2D/	.	4ff\	e-
.	.	4gg\	-ti-
4E\	.	4ee\	-am
4F\	.	4ee\	pro
=46-	=46-	=46-	=46
2G\	#	1dd	no-
2GG/	.	.	.
1C	.	1cc	-bis
=47	=47	=47	=47
1F	.	1cc	ſub
2BB-/	.	2dd\	Pon-
2FF/	.	2cc\	-ti-
=48-	=48-	=48-	=48
2GG/	.	2b-\	-o
4AA/	.	2a\	Pi-
4BB-/	.	.	.
!!LO:LB:g=original
!LO:TX:a:t=P:problem=przy kluczu błędnie bemol [C-]	!	!	!
2C/	.	1g	-la-
2CC/	.	.	.
=49-	=49-	=49-	=49
!LO:N:vis=2	!	!	!
1FF	.	1f	-to
=	=	=	=
2F\	.	2f/	Paſ-
2E\	.	2g/	-sus
=50-	=50-	=50-	=50
2F\	.	2a\	et
4G\	.	2b-\	ſe-
4E\	.	.	.
2F\	.	2a\	-pul-
2C/	.	2g/	-tus
=51-	=51-	=51-	=51
1FF	.	1f	est
=	=	=	=
2F\	.	2f/	Et
2FF/	.	4f/	Re-
.	.	4f/	-sur-
=52-	=52-	=52-	=52
4F\	.	2a\	-re-
4D\	.	.	.
4G\	#	2bn\	-xit
4GG/	.	.	.
2C/	.	2cc\	Ter-
2C/	.	4cc\	-ti-
.	.	4cc\	-a
!!LO:LB:g=original
=53-	=53-	=53-	=53
4G\	.	2dd\	di-
4F\	.	.	.
4E\	.	2ee\	-e
4C\	.	.	.
4D/	.	2ff\	ſe-
8AA/L	.	.	.
8BB-/J	.	.	.
4C/	.	2cc\	-cun-
4E\	.	.	.
=54-	=54	=54-	=54
4F\	.	4a\	-d(um)
4D\	.	4a\	ſcri-
4G\	.	2bn\	-ptu-
4GG/	.	.	.
1C	.	1cc	-ras
=55	=55	=55	=55
2G\	.	2b-\	Et
2C/	.	2g/	Aſ-
4F\	.	2a\	-cen-
4D\	.	.	.
4G\	.	2b-\	-dit
4E\	.	.	.
=56-	=56	=56-	=56
4F\	.	2a\	in
4FF/	.	.	.
4C/	.	2g/	Cae-
4CC/	.	.	.
1FF	.	1f	-lum
=57	=57	=57	=57
4C/	.	2e/	ſe-
4CC/	.	.	.
4D/	.	2f/	-det
!LO:TX:a:t=P:problem=♯ w funkcji kasownika	!	!	!
4BBn/	.	.	.
4C/	.	2g/	ad
4CC/	.	.	.
4F\	.	2a\	dex-
4FF/	.	.	.
!!LO:PB:g=original
=58-	=58	=58-	=58
!	!	!LO:SIC:v:l:s=-te-	!
4C/	.	2g/	-ter-
4CC/	.	.	.
4D/	.	2f/	-ram
!LO:TX:a:t=P:problem=♯ w funkcji kasownika	!	!	!
4BBn/	.	.	.
*	*	*lig	*
4C\	.	2e/	Pa-
4E\	.	.	.
4G\	.	2d/	.
4GG/	#	.	.
*	*	*Xlig	*
=59-	=59	=59-	=59
1C	.	1c	-tris
=	=	=	=
2F\	.	2f/	Et
2C/	.	2g/	i-
=60-	=60	=60-	=60
2F\	.	2a\	-te-
2FF/	.	2f/	-rum
4F\	.	2cc\	Ven-
4D\	.	.	.
4G\	.	4dd\	-tu-
4GG/	#	4dd\	-rus
=61-	=61	=61-	=61
1C	.	1cc	eſt
=	=	=	=
2F\	.	2cc\	cum
!LO:N:vis=4	!	!	!
2GG/	.	2cc\	glo-
=62-	=62	=62-	=62
!LO:TX:a:t=P:problem=dźwięk nieczytelny	!	!	!
1ryy	.	1dd	-ri-
!	!	!LO:TX:a:t=P:problem=♯ w funkcji kasownika	!
1GG	#	1bn	-a
=63-	=63	=63-	=63
2C/	.	2cc\	Ju-
4E-X\	.	2ee-X\	-di-
4F\	.	.	.
1G	.	1dd	-ca-
=64-	=64	=64-	=64
1C	.	1cc	-re
!!LO:LB:g=original
=	=	=	=
2.B-X\	.	2.dd\	Vi-
4F\	.	4cc\	-vos
=65-	=65	=65-	=65
4G\	.	2b-\	et
4E\	.	.	.
4F\	.	2a\	Mor-
8AA/L	.	.	.
8BB-/J	.	.	.
1C	.	1g	-tu-
=66-	=66	=66-	=66
1FF	.	1f	-os
=	=	=	=
2C/	.	2e/	cu-
!LO:TX:a:t=P:problem=♯ w funkcji kasownika	!	!	!
2BBn/	.	2f/	-ius
=67-	=67	=67-	=67
2C/	.	2g/	Reg-
2F\	.	2a\	-ni
2C/	.	2g/	non
2D/	.	2f/	e-
=68-	=68	=68-	=68
4E\	.	2e/	-rit
4F\	.	.	.
4G\	.	2d/	fi-
4GG/	#	.	.
1C	.	1c	-nis
=69	=69	=69	=69
2FF/	.	2f/	Et
2F\	.	2cc\	in
2B-\	.	4dd\	ſpi-
.	.	4dd\	-ri-
2F\	.	2cc\	-tum
!!LO:LB:g=original
=70-	=70	=70-	=70
4D\	.	4ff\	ſan-
8E\L	.	4ee\	-ctus
8F\J	.	.	.
4G\	.	4dd\	D(o-
4GG/	.	4dd\	-mi)-
1C	.	1cc	-num
=71	=71	=71	=71
2FF/	.	2cc\	Et
2BB-/	.	2dd\	Vi-
2FF/	.	1cc	-vi-
2AA/	.	.	.
=72-	=72	=72-	=72
!LO:N:vis=1	!	!	!
*	*	*lig	*
2GG/	.	2b-\	-fi-
!LO:N:vis=2	!	!	!
4AA/	.	2a\	.
!LO:N:vis=2	!	!	!
4BB-/	.	.	.
*	*	*Xlig	*
1C	.	1g	-can-
=73-	=73	=73-	=73
1FF	.	1f	-tem
=	=	=	=
2F\	.	1a	Qui
2FF/	.	.	.
=74-	=74	=74-	=74
2D/	.	2f/	ex
2C/	.	2g/	Pa-
!	!	!LO:SIC:v:l:s=-tre	!
2F\	.	2a\	-re
2FF/	.	2f/	fi-
=75-	=75	=75-	=75
2FF/	.	2cc\	-li-
2AA/	.	2cc\	-o-
4BB-/	.	(4b-\	-q(ue)
4C/	.	4a\)	.
4D/	.	4g/	pro-
4BB-/	.	4f/	.
!!LO:LB:g=original
=76-	=76	=76-	=76
1C	.	1g	-ce-
2F\	.	1a	-dit
2FF/	.	.	.
=77	=77	=77	=77
2F\	.	2a\	Qui
2C/	.	2g/	c(um)
2F\	.	2a\	Pa-
4G\	.	4b-\	-tre
4E\	.	4b-\	et
=78-	=78	=78-	=78
4F\	.	2a\	Fi-
4D\	.	.	.
4BB-/	.	2g/	-li-
4C/	.	.	.
1FF	.	1f	-o
=79	=79	=79	=79
2.C/	.	2e/	ſi-
.	.	2f/	-mul
!LO:TX:a:t=P:problem=♯ above w funkcji kasownika	!	!	!
4BBn/	.	.	.
2C/	.	2g\	a-
2F\	.	2a\	-do-
=80-	=80	=80-	=80
4C/	.	(2g/	-ra-
4CC/	.	.	.
4FF/	.	2f/	.
4D\	.	.	.
4E\	.	2e/	.
4F\	.	.	.
4G\	.	2d/)	.
4GG/	.	.	.
=81-	=81	=81-	=81
1C	.	1c	-tur
!!LO:PB:g=original
=	=	=	=
2F\	.	2f/	et
2C/	.	2g/	cum
=82-	=82	=82-	=82
2F\	.	2a\	glo-
2FF/	.	2f/	-ri-
4F\	.	2cc\	-fi-
4D\	.	.	.
4G\	.	2dd\	-ca-
4GG/	.	.	.
=83-	=83	=83-	=83
1C	.	1cc	-tur
=	=	=	=
4F\	.	4f/	Qui
4FF/	.	4f/	lo-
4C/	.	2g/	-cu-
4E\	.	.	.
=84-	=84	=84-	=84
2F\	.	2a\	-tus
4G\	.	4b-\	eſt
4E\	.	4b-\	per
4F\	.	2a\	Pro-
4BB-/	.	.	.
4C/	.	2g/	-phe-
4CC/	.	.	.
=85-	=85	=85-	=85
1FF	.	1f	-tas
=	=	=	=
2F\	.	2f/	Et
2FF/	.	2cc\	u-
!!LO:LB:g=original
=86-	=86	=86-	=86
!LO:TX:a:t=P:problem=niezrozumiały symbol nad nutą	!	!	!
2BB-/	.	2dd\	-nam
2FF/	.	2cc\	ſan-
4D\	.	4ff\	-ctam
8E\L	.	4ee\	Ca-
8F\J	.	.	.
4G\	.	4dd\	-tho-
4GG/	.	4dd\	-li-
=87-	=87	=87-	=87
1C	.	1cc	-c(am)
=	=	=	=
2FF/	.	4cc\	Et
.	.	4cc\	A-
8BB-/L	.	4dd\	-po-
8C/J	.	.	.
8D\L	.	4dd\	-ſto-
8E\J	.	.	.
=88-	=88	=88-	=88
4F\	.	2cc\	-li-
4G\	.	.	.
4A\	.	2cc\	-c(am)
4F\	.	.	.
4G\	.	2b-\	Ec-
4E\	.	.	.
4F\	.	2a\	-cle-
8AA/L	.	.	.
8BB-/J	.	.	.
=89-	=89	=89-	=89
4C/	.	2.g/	.
4BB-/	.	.	.
4C/	.	.	.
4CC/	.	4g/	-ſi-
1FF	.	1f	-am
=90	=90	=90	=90
2F\	.	2f/	Con-
2E\	.	2g/	-fi-
!!LO:LB:g=original
2F\	.	2a\	-te-
2FF/	.	4f/	-or
.	.	4f/	U-
=91-	=91	=91-	=91
4F\	.	4cc\	-num
4D\	.	4cc\	Bap-
4G\	.	2dd\	-tiſ-
4GG/	.	.	.
1C	.	1cc	-ma
=92	=92	=92	=92
4F\	.	4f/	in
4FF/	.	4f/	re-
4E\	.	4g/	-miſ-
4C\	.	4g/	-si-
4F\	.	2a\	-o-
4D\	.	.	.
4G\	.	2b-\	-nem
4E\	.	.	.
=93-	=93	=93-	=93
4F\	.	4a\	pec-
4BB-/	.	4a\	-ca-
4C/	.	2g/	-to-
4CC/	.	.	.
1FF	.	1cc 1f	-r(um)
=94	=94	=94	=94
2F\	.	2f/	Et
2FF/	.	2f/	ex-
!	!	!LO:SIC:v:l:s=-pe-	!
2E\	.	2cc\	-Pec-
2C/	.	2cc\	-cto
=95-	=95	=95-	=95
4BB-/	.	4dd\	re-
4C/	.	4dd\	-ſur-
!!LO:LB:g=original
4F\	.	4cc\	-rec-
4FF/	.	4cc\	-ti-
2G\	.	2dd\	-o-
2E\	.	2ee\	-ne
=96-	=96	=96-	=96
4D/	.	4ff\	Mor-
8E\L	.	4ee\	-tu-
8F\J	.	.	.
4G\	.	2dd\	-o-
4GG/	.	.	.
1C	.	1cc	-r(um)
=97	=97	=97	=97
2F\	.	4f/	Et
.	.	4f/	Vi-
2E\	.	4g/	-t(am)
.	.	4g/	Ven-
2F\	.	2a\	-tu-
4G\	.	2b-\	-ri
4E\	.	.	.
=98-	=98	=98-	=98
4F\	.	2a\	ſae-
4D/	.	.	.
4BB-/	.	2g/	-cu-
4C/	.	.	.
1FF	.	1f	-li
=99	=99	=99	=99
*	*	*lig	*
2F\	.	2f/	A-
4F\	.	2g\	.
4E\	.	.	.
*	*	*Xlig	*
*	*	*lig	*
2F\	.	2a\	.
2FF/	.	2f/	.
*	*	*Xlig	*
!!LO:PB:g=original
=100-	=100	=100-	=100
*	*	*lig	*
4F\	.	2cc\	.
4D\	.	.	.
4G\	.	2dd\	.
4GG/	.	.	.
*	*	*Xlig	*
1C	.	1cc	-men
=101	=101	=101	=101
!	!	!LO:TX:a:t=problem&colon;ligatury zapisane całymi nutami	!
*	*	*lig	*
2F\L	.	1f	A-
2FF/J	.	.	.
!LO:N:vis=4	!	!	!
2E\	.	1g	.
!LO:N:vis=4	!	!	!
2C\	.	.	.
*	*	*Xlig	*
=102-	=102	=102-	=102
*	*	*lig	*
2F\L	.	1a	.
2D\J	.	.	.
2G\L	.	1b-	.
2E\J	.	.	.
*	*	*Xlig	*
=103-	=103	=103-	=103
*	*	*lig	*
2F\	.	1a	.
2BB-/	.	.	.
1C	.	1g	.
*	*	*Xlig	*
=104-	=104	=104-	=104
0FF	.	0f	-men
==	==	==	==
*-	*-	*-	*-
!!!system-decoration: s1,s2
!!!AIN: 2 empty
!!!ENC: Marta Lawrence
!!!END: 2020-12-10
!!!ENC: Andrzej Kubiczek
!!!END: 2020-06-16
